src/assets/icons/weeks,simple,46.svg

<svg width="48" height="48" viewBox="0 0 48 48" fill="none" xmlns="http://www.w3.org/2000/svg">
<g clip-path="url(#clip0_20:195)">
<rect opacity="0.2" x="5" y="5" width="38" height="38" rx="4" fill="black"/>
<path d="M5 13C5 9.22876 5 7.34315 6.17157 6.17157C7.34315 5 9.22876 5 13 5H35C38.7712 5 40.6569 5 41.8284 6.17157C43 7.34315 43 9.22876 43 13V15H5V13Z" fill="black"/>
<path d="M9.09588 34.9318H17.4737V38H21.0021V34.9318H23.1669V31.9744H21.0021V20.5455H16.3828L9.09588 32.0256V34.9318ZM17.5419 31.9744H12.8118V31.8381L17.4055 24.5682H17.5419V31.9744ZM32.3246 38.2386C36.2109 38.2557 38.8615 35.7074 38.853 32.1534C38.8615 28.8807 36.5774 26.5199 33.4837 26.5199C31.5661 26.5199 29.87 27.4403 29.0859 28.983H28.9666C28.9837 25.5824 30.1768 23.4688 32.4524 23.4688C33.7905 23.4688 34.7536 24.2017 35.0348 25.4205H38.674C38.3246 22.5483 35.9382 20.3068 32.4524 20.3068C28.1399 20.3068 25.37 23.8011 25.353 29.6648C25.3445 36.0568 28.7365 38.2216 32.3246 38.2386ZM32.3075 35.3409C30.603 35.3409 29.3416 33.9688 29.3416 32.2642C29.3501 30.5682 30.6371 29.1875 32.3331 29.1875C34.0376 29.1875 35.282 30.5256 35.2734 32.2557C35.282 34.0028 34.0121 35.3409 32.3075 35.3409ZM24.1918 67.2386C28.0781 67.2557 30.7287 64.7074 30.7202 61.1534C30.7287 57.8807 28.4446 55.5199 25.3509 55.5199C23.4332 55.5199 21.7372 56.4403 20.9531 57.983H20.8338C20.8509 54.5824 22.044 52.4688 24.3196 52.4688C25.6577 52.4688 26.6207 53.2017 26.902 54.4205H30.5412C30.1918 51.5483 27.8054 49.3068 24.3196 49.3068C20.0071 49.3068 17.2372 52.8011 17.2202 58.6648C17.2116 65.0568 20.6037 67.2216 24.1918 67.2386ZM24.1747 64.3409C22.4702 64.3409 21.2088 62.9688 21.2088 61.2642C21.2173 59.5682 22.5043 58.1875 24.2003 58.1875C25.9048 58.1875 27.1491 59.5256 27.1406 61.2557C27.1491 63.0028 25.8793 64.3409 24.1747 64.3409Z" fill="black"/>
</g>
<defs>
<clipPath id="clip0_20:195">
<rect width="48" height="48" fill="white"/>
</clipPath>
</defs>
</svg>

<svg xmlns="http://www.w3.org/2000/svg" width="48" height="48" fill="none" viewBox="0 0 48 48">
  <g clip-path="url(#clip0_20:195)">
    <rect width="38" height="38" x="5" y="5" fill="#000" opacity=".2" rx="4"/>
    <path fill="#000" d="M5 13c0-3.771 0-5.657 1.172-6.828C7.343 5 9.229 5 13 5h22c3.771 0 5.657 0 6.828 1.172C43 7.343 43 9.229 43 13v2H5v-2zM9.096 34.932h8.378V38h3.528v-3.068h2.165v-2.958h-2.165V20.546h-4.62l-7.286 11.48v2.906zm8.446-2.958h-4.73v-.136l4.594-7.27h.136v7.406zm14.783 6.265c3.886.017 6.536-2.532 6.528-6.086.008-3.272-2.276-5.633-5.37-5.633-1.917 0-3.613.92-4.397 2.463h-.12c.018-3.4 1.21-5.514 3.486-5.514 1.339 0 2.302.733 2.583 1.951h3.639c-.35-2.872-2.736-5.113-6.222-5.113-4.312 0-7.082 3.494-7.099 9.358-.009 6.392 3.383 8.557 6.972 8.574zm-.018-2.898c-1.704 0-2.965-1.372-2.965-3.077.008-1.696 1.295-3.077 2.991-3.077 1.705 0 2.949 1.339 2.94 3.069.009 1.747-1.26 3.085-2.966 3.085zm-8.115 31.898c3.886.017 6.537-2.532 6.528-6.086.009-3.272-2.275-5.633-5.37-5.633-1.917 0-3.613.92-4.397 2.463h-.12c.018-3.4 1.211-5.514 3.487-5.514 1.338 0 2.3.733 2.582 1.951h3.64c-.35-2.872-2.737-5.113-6.222-5.113-4.313 0-7.083 3.494-7.1 9.358-.008 6.392 3.384 8.557 6.972 8.574zm-.017-2.898c-1.705 0-2.966-1.372-2.966-3.077.008-1.696 1.295-3.077 2.991-3.077 1.705 0 2.95 1.339 2.94 3.069.01 1.747-1.26 3.085-2.965 3.085z"/>
  </g>
  <defs>
    <clipPath id="clip0_20:195">
      <path fill="#fff" d="M0 0h48v48H0z"/>
    </clipPath>
  </defs>
</svg>
